assets/icons/tractor-solid.svg

<svg viewBox="0 0 639.99 512" xmlns="http://www.w3.org/2000/svg"><path d="m528 336a88 88 0 1 0 88 88 88 88 0 0 0 -88-88zm0 112a24 24 0 1 1 24-24 24 24 0 0 1 -24 24zm80-288h-64v-40.2a64.11 64.11 0 0 1 13.15-38.8c4.42-5.8 3.55-14.06-1.32-19.49l-21.63-24.21a16.28 16.28 0 0 0 -24.7.78 128.17 128.17 0 0 0 -29.5 81.72v40.2h-102.33l-56.09-130.86a47.91 47.91 0 0 0 -44.13-29.14h-133.45a48.05 48.05 0 0 0 -48 48v146.52a21.76 21.76 0 0 0 -28.89 1.48l-31.11 31.1a22 22 0 0 0 0 31.11l5.06 5.06a151.71 151.71 0 0 0 -11.91 28.73h-7.15a22 22 0 0 0 -22 22v44a22 22 0 0 0 22 22h7.14a152.46 152.46 0 0 0 11.91 28.73l-5.05 5.05a22 22 0 0 0 0 31.11l31.1 31.11a22 22 0 0 0 31.11 0l5.06-5.06a151.71 151.71 0 0 0 28.73 11.91v7.15a22 22 0 0 0 22 22h44a22 22 0 0 0 22-22v-7.14a151.71 151.71 0 0 0 28.71-11.86l5.06 5.06a22 22 0 0 0 31.11 0l31.12-31.16a22 22 0 0 0 0-31.11l-5.06-5.06a151.71 151.71 0 0 0 11.9-28.73h7.16a22 22 0 0 0 22-22v-6h80.54c21.91-29 56.32-48 95.46-48a118.68 118.68 0 0 1 51.8 12.2l50.82-50.82a32 32 0 0 0 9.38-22.62v-50.76a32 32 0 0 0 -32-32zm-432 256a80 80 0 1 1 80-80 80 80 0 0 1 -80 80zm22-256h-38v-96h106.89l41.11 96z" fill="#267f6a"/></svg>

<svg id="Ebene_1" data-name="Ebene 1" xmlns="http://www.w3.org/2000/svg" viewBox="0 0 639.99 512"><defs><style>.cls-1{fill:#267f6a;}</style></defs><path class="cls-1" d="M528,336a88,88,0,1,0,88,88A88,88,0,0,0,528,336Zm0,112a24,24,0,1,1,24-24A24,24,0,0,1,528,448Zm80-288H544V119.8A64.11,64.11,0,0,1,557.15,81c4.42-5.8,3.55-14.06-1.32-19.49L534.2,37.3a16.28,16.28,0,0,0-24.7.78A128.17,128.17,0,0,0,480,119.8V160H377.67L321.58,29.14A47.91,47.91,0,0,0,277.45,0H144A48.05,48.05,0,0,0,96,48V194.52A21.76,21.76,0,0,0,67.11,196L36,227.1a22,22,0,0,0,0,31.11l5.06,5.06A151.71,151.71,0,0,0,29.15,292H22A22,22,0,0,0,0,314v44a22,22,0,0,0,22,22h7.14a152.46,152.46,0,0,0,11.91,28.73L36,413.78a22,22,0,0,0,0,31.11L67.1,476a22,22,0,0,0,31.11,0l5.06-5.06A151.71,151.71,0,0,0,132,482.85V490a22,22,0,0,0,22,22h44a22,22,0,0,0,22-22v-7.14A151.71,151.71,0,0,0,248.71,471l5.06,5.06a22,22,0,0,0,31.11,0L316,444.9a22,22,0,0,0,0-31.11l-5.06-5.06A151.71,151.71,0,0,0,322.84,380H330a22,22,0,0,0,22-22v-6h80.54c21.91-29,56.32-48,95.46-48a118.68,118.68,0,0,1,51.8,12.2l50.82-50.82A32,32,0,0,0,640,242.76V192A32,32,0,0,0,608,160ZM176,416a80,80,0,1,1,80-80A80,80,0,0,1,176,416Zm22-256H160V64H266.89L308,160Z" transform="translate(0 0)"/></svg>
